images/rules_ico_3.svg

<svg width="48" height="48" viewBox="0 0 48 48" fill="none" xmlns="http://www.w3.org/2000/svg">
<rect width="48" height="48" rx="12" fill="#222222"/>
<path d="M29.6435 8.0002C29.4664 8.00243 29.288 8.01427 29.1105 8.0386L14.4809 9.97875H14.4347C14.052 9.97875 13.7123 10.0261 13.4164 10.1241C13.3897 10.131 13.3646 10.1404 13.3402 10.1518C13.2182 10.1971 13.1034 10.2511 12.9975 10.3154C12.619 10.5444 12.3709 10.8916 12.2305 11.265C11.9499 12.0117 12.0042 12.8761 12.0042 13.7954V36.1835C12.0042 37.1028 11.9501 37.9719 12.2305 38.7186C12.3709 39.0921 12.6188 39.439 12.9975 39.6683C13.376 39.8973 13.8566 40 14.4349 40H31.7778C34.0907 40 36 38.3072 36 36.1835V13.7954C36 12.1841 34.8999 10.8217 33.3591 10.2578C32.8422 8.84894 31.2809 7.97896 29.6436 8.00039L29.6435 8.0002ZM29.6532 8.92327C30.6455 8.9139 31.5876 9.33916 32.119 9.9919C32.006 9.98253 31.8924 9.97784 31.7774 9.97784H21.4962L29.2425 8.95138C29.3796 8.93286 29.5167 8.92393 29.6528 8.92259L29.6532 8.92327ZM14.4342 10.9054H31.7771C33.6089 10.9054 35.0398 12.2024 35.0398 13.7952V36.1833C35.0398 37.7761 33.6088 39.0778 31.7771 39.0778H14.4342C13.9763 39.0778 13.6931 38.9959 13.5121 38.8865C13.3313 38.7769 13.2205 38.6385 13.1329 38.4057C12.958 37.94 12.9626 37.122 12.9626 36.1831V13.795C12.9626 12.8558 12.9577 12.043 13.1329 11.5771C13.2203 11.3442 13.3311 11.2056 13.5121 11.0962C13.6929 10.9866 13.9763 10.9049 14.4342 10.9049V10.9054ZM23.9993 17.2753C21.6658 17.2753 19.6326 18.5359 18.6074 20.3839V20.3841C18.5872 20.4129 18.5702 20.4439 18.5572 20.4765C18.1364 21.269 17.8993 22.1656 17.8993 23.1138C17.8993 24.0617 18.1367 24.9567 18.5572 25.7487C18.5702 25.7817 18.5869 25.8132 18.6074 25.8424C19.6326 27.6904 21.6658 28.9511 23.9993 28.9511C26.3308 28.9511 28.3614 27.6926 29.3874 25.8474C29.4108 25.8148 29.4296 25.7797 29.4436 25.7427C29.862 24.952 30.0978 24.0592 30.0978 23.1138C30.0978 22.1684 29.862 21.2743 29.4436 20.4836C29.4299 20.4475 29.4113 20.4133 29.3887 20.3816C28.363 18.535 26.3319 17.2755 23.9994 17.2755L23.9993 17.2753ZM23.9993 18.1972C24.0493 18.1972 24.1555 18.2301 24.3209 18.4377C24.4863 18.6451 24.6684 18.9973 24.8213 19.4509C24.8959 19.6721 24.9642 19.9179 25.0251 20.1829H22.9685C23.0289 19.918 23.0965 19.6719 23.1711 19.4509C23.3242 18.9973 23.5073 18.6452 23.6727 18.4377C23.8381 18.2303 23.9494 18.1972 23.9991 18.1972H23.9993ZM22.587 18.3848C22.4643 18.6187 22.3565 18.881 22.2592 19.1696C22.1551 19.4786 22.0642 19.8186 21.9878 20.1829H19.8685C20.5334 19.3257 21.4836 18.684 22.587 18.3847L22.587 18.3848ZM25.4105 18.3848C26.5137 18.6843 27.4641 19.3257 28.1291 20.183H26.0111C25.9345 19.8186 25.8439 19.4786 25.7398 19.1697C25.6424 18.8811 25.5335 18.6187 25.4108 18.3848L25.4105 18.3848ZM19.3046 21.1049H21.8317C21.768 21.592 21.7276 22.1102 21.7127 22.6495H18.8817C18.9347 22.1037 19.0811 21.5838 19.3046 21.1049ZM22.8001 21.1049H25.1959C25.264 21.5851 25.3095 22.1055 25.326 22.6495H22.6739C22.6909 22.1055 22.7329 21.5851 22.8003 21.1049H22.8001ZM26.1666 21.1049H28.6937C28.9174 21.5838 29.0633 22.1039 29.1165 22.6495H26.2855C26.2709 22.1102 26.2303 21.592 26.1666 21.1049ZM18.8819 23.5715H21.7128C21.7275 24.1108 21.7684 24.629 21.8318 25.1161H19.3022C19.0791 24.637 18.9344 24.1173 18.8819 23.5715ZM22.6738 23.5715H25.3258C25.3089 24.116 25.2638 24.6361 25.1957 25.1161H22.8002C22.7328 24.6359 22.69 24.1159 22.6738 23.5715ZM26.2854 23.5715H29.1164C29.0639 24.1173 28.9191 24.6372 28.6961 25.1161H26.1678C26.2313 24.6289 26.2708 24.1108 26.2854 23.5715ZM19.869 26.043H21.9869C22.0636 26.4075 22.1554 26.747 22.2597 27.0562C22.357 27.3449 22.4648 27.6072 22.5875 27.8411C21.4841 27.5415 20.5339 26.9001 19.869 26.0429L19.869 26.043ZM22.9702 26.043H25.0245C24.9636 26.3062 24.896 26.5501 24.8219 26.7703C24.6688 27.2239 24.4869 27.5809 24.3214 27.7885C24.156 27.9961 24.0498 28.0289 23.9999 28.0289C23.9499 28.0289 23.8389 27.9961 23.6735 27.7885C23.508 27.5811 23.3247 27.2241 23.1719 26.7703C23.0977 26.5502 23.0308 26.3062 22.9704 26.043H22.9702ZM26.0114 26.043H28.1294C27.4644 26.9002 26.5142 27.5418 25.4108 27.8411C25.5335 27.6072 25.6425 27.3449 25.7398 27.0563C25.8439 26.7471 25.9347 26.4075 26.0112 26.043L26.0114 26.043ZM18.349 31.7864L18.3492 31.7866C18.0862 31.788 17.8732 31.992 17.8713 32.2447C17.8706 32.3671 17.9206 32.4847 18.0103 32.5718C18.0997 32.6588 18.2217 32.708 18.3492 32.7086H29.6445H29.6443C29.7725 32.7093 29.8959 32.6606 29.9865 32.5733C30.0771 32.4863 30.128 32.368 30.1273 32.2447C30.1252 31.9902 29.9091 31.7853 29.6443 31.7866L18.349 31.7864Z" fill="white"/>
</svg>

<svg width="48" height="48" fill="none" xmlns="http://www.w3.org/2000/svg"><rect width="48" height="48" rx="12" fill="#222"/><path d="M29.643 8a4.328 4.328 0 00-.533.039l-14.63 1.94h-.045c-.383 0-.723.047-1.019.145a2 2 0 00-.419.191 1.85 1.85 0 00-.767.95c-.28.747-.226 1.611-.226 2.53v22.389c0 .919-.054 1.788.226 2.535.14.373.389.72.768.95.378.228.859.331 1.437.331h17.343C34.09 40 36 38.307 36 36.184V13.795c0-1.61-1.1-2.973-2.64-3.537-.518-1.41-2.08-2.279-3.716-2.258zm.01.923c.992-.01 1.935.416 2.466 1.069a4.127 4.127 0 00-.342-.014h-10.28l7.745-1.027c.138-.018.275-.027.41-.028h.001zm-15.219 1.982h17.343c1.832 0 3.263 1.297 3.263 2.89v22.388c0 1.593-1.431 2.895-3.263 2.895H14.434c-.458 0-.74-.082-.922-.192-.18-.11-.292-.248-.38-.48-.174-.466-.17-1.284-.17-2.223V13.795c0-.94-.004-1.752.17-2.218.088-.233.2-.371.38-.48.18-.11.464-.192.922-.192zM24 17.275c-2.333 0-4.366 1.26-5.392 3.109a.454.454 0 00-.05.093 5.605 5.605 0 000 5.272.45.45 0 00.05.093c1.026 1.848 3.059 3.11 5.392 3.11 2.332 0 4.362-1.26 5.388-3.105a.456.456 0 00.057-.104 5.605 5.605 0 000-5.26.453.453 0 00-.055-.101c-1.026-1.847-3.057-3.107-5.39-3.107zm0 .922c.05 0 .157.033.322.24.165.208.347.56.5 1.014.075.221.143.467.204.732H22.97a7.34 7.34 0 01.202-.732c.153-.454.336-.806.502-1.013.165-.208.276-.24.326-.24zm-1.412.188a5.45 5.45 0 00-.328.785 8.93 8.93 0 00-.271 1.013h-2.12a5.139 5.139 0 012.719-1.798zm2.823 0a5.14 5.14 0 012.72 1.798H26.01a8.962 8.962 0 00-.271-1.013 5.43 5.43 0 00-.33-.785zm-6.105 2.72h2.527a15.191 15.191 0 00-.12 1.544h-2.83c.053-.545.2-1.065.423-1.544zm3.495 0h2.396c.068.48.113 1 .13 1.544h-2.652a14.44 14.44 0 01.126-1.544zm3.367 0h2.527c.223.479.37.999.422 1.544h-2.83a15.107 15.107 0 00-.12-1.544zm-7.285 2.466h2.83c.015.54.056 1.058.12 1.545h-2.53a4.724 4.724 0 01-.42-1.544zm3.792 0h2.652a14.19 14.19 0 01-.13 1.545H22.8c-.067-.48-.11-1-.126-1.544zm3.611 0h2.831a4.725 4.725 0 01-.42 1.545h-2.528c.063-.487.103-1.005.117-1.544zm-6.416 2.472h2.118c.077.364.168.704.273 1.013.097.289.205.551.327.785a5.14 5.14 0 01-2.718-1.798zm3.101 0h2.055a7.878 7.878 0 01-.203.727c-.153.454-.335.81-.5 1.018-.166.208-.272.24-.322.24-.05 0-.161-.032-.326-.24-.166-.207-.35-.564-.502-1.018a7.647 7.647 0 01-.202-.727zm3.041 0h2.118a5.14 5.14 0 01-2.718 1.798c.122-.234.231-.496.329-.785.104-.309.195-.649.271-1.013zm-7.662 5.743a.471.471 0 00-.478.459c0 .122.05.24.14.327a.49.49 0 00.338.137h11.296a.49.49 0 00.341-.136.452.452 0 00.141-.328.472.472 0 00-.483-.458H18.35z" fill="#fff"/></svg>
